packages/foundations/assets/icons/functional/images/transportation/bike_20.svg

<svg width="20" height="20" viewBox="0 0 20 20" fill="none" xmlns="http://www.w3.org/2000/svg">
<g clip-path="url(#clip0_187_831)">
<path fill-rule="evenodd" clip-rule="evenodd" d="M14.5221 5.83469C14.2949 5.88208 14.0669 5.9276 13.838 5.97125L15.1432 10.1493C16.6536 10.1591 17.875 11.3865 17.875 12.8993C17.875 14.418 16.6438 15.6493 15.125 15.6493C13.6062 15.6493 12.375 14.418 12.375 12.8993C12.375 11.9039 12.9038 11.0321 13.6957 10.5494L13.368 9.49711L10.1857 12.8548C10.0881 12.9579 9.96967 13.0389 9.83831 13.0926C9.36361 13.2867 8.78713 13.0926 8.53425 12.5454C8.29342 11.9621 8.05467 11.3783 7.818 10.7941L7.24776 11.5082C7.46094 11.8711 7.625 12.3512 7.625 12.8993C7.625 14.418 6.39378 15.6493 4.875 15.6493C3.35622 15.6493 2.125 14.418 2.125 12.8993C2.125 11.3805 3.35622 10.1493 4.875 10.1493C5.33928 10.1493 5.77668 10.2643 6.16026 10.4675L7.169 9.20511L6.328 7.14911L5.875 7.14925C5.46079 7.14925 5.125 6.81347 5.125 6.39925C5.125 6.01956 5.43627 5.64925 5.875 5.64925C6.53997 5.64708 7.20509 5.64708 7.87035 5.64925C8.28456 5.64925 8.62035 5.98504 8.62035 6.39925C8.62035 6.77895 8.30578 7.14411 7.946 7.14411C8.06837 7.46542 8.20171 7.79209 8.346 8.12411L12.546 6.86411L12.1591 5.62271C12.0366 5.23028 12.2312 4.77765 12.7279 4.66382C13.368 4.53469 13.8217 4.44505 14.2279 4.36382C14.5221 4.30531 14.979 4.43685 15.0933 4.885C15.2522 5.50023 14.7503 5.79204 14.5221 5.83469ZM4.875 11.6493C4.18464 11.6493 3.625 12.2089 3.625 12.8993C3.625 13.5896 4.18464 14.1493 4.875 14.1493C5.56536 14.1493 6.125 13.5896 6.125 12.8993C6.125 12.2089 5.56536 11.6493 4.875 11.6493ZM15.125 11.6493C14.4346 11.6493 13.875 12.2089 13.875 12.8993C13.875 13.5896 14.4346 14.1493 15.125 14.1493C15.8154 14.1493 16.375 13.5896 16.375 12.8993C16.375 12.2089 15.8154 11.6493 15.125 11.6493ZM12.218 8.52911L8.917 9.51911L9.629 11.2603L12.218 8.52911Z" fill="#1A1C1F"/>
</g>
<defs>
<clipPath id="clip0_187_831">
<rect width="20" height="20" fill="white"/>
</clipPath>
</defs>
</svg>

<svg xmlns="http://www.w3.org/2000/svg" width="20" height="20" fill="none"><g clip-path="url(#a)"><path fill="#1A1C1F" fill-rule="evenodd" d="M14.522 5.835a41 41 0 0 1-.684.136l1.305 4.178a2.75 2.75 0 1 1-1.447.4l-.328-1.052-3.182 3.358a1 1 0 0 1-.348.238c-.474.194-1.05 0-1.304-.548q-.361-.875-.716-1.75l-.57.713a2.75 2.75 0 1 1-1.088-1.04L7.17 9.205 6.328 7.15h-.453a.75.75 0 1 1 0-1.5q.998-.003 1.995 0a.75.75 0 0 1 .75.75c0 .38-.314.745-.674.745q.184.482.4.98l4.2-1.26-.387-1.241a.74.74 0 0 1 .569-.96l1.5-.3c.294-.058.751.074.865.522.16.615-.343.907-.57.95m-9.647 5.814a1.25 1.25 0 1 0 0 2.5 1.25 1.25 0 0 0 0-2.5m10.25 0a1.25 1.25 0 1 0 0 2.5 1.25 1.25 0 0 0 0-2.5m-2.907-3.12-3.301.99.712 1.741z" clip-rule="evenodd"/></g><defs><clipPath id="a"><path fill="#fff" d="M0 0h20v20H0z"/></clipPath></defs></svg>
